X: 26710
T: Mike Hobin's
R: mazurka
M: 3/4
K: Adorian
e3 gfd|eAA AB/c/d|egf dce|dGG GB/c/d|
eAA gfd|ega gef|g/f/ed BGd|BAA A:|
|:eaa bag|ede g2 a|gea g2 d|BGG GB/c/d|
e2 a bag|ede fga|ged BGd|BAA A:|

